dist/assets/img/nhl/teams/phi.svg

<?xml version="1.0" encoding="UTF-8"?>
<svg width="512px" height="512px" viewBox="0 0 512 512" version="1.1" xmlns="http://www.w3.org/2000/svg" xmlns:xlink="http://www.w3.org/1999/xlink">
    <!-- Generator: Sketch 41.2 (35397) - http://www.bohemiancoding.com/sketch -->
    <title>philadelphia-flyers</title>
    <desc>Created with Sketch.</desc>
    <defs></defs>
    <g id="NHL" stroke="none" stroke-width="1" fill="none" fill-rule="evenodd">
        <g id="philadelphia-flyers">
            <g id="phi" transform="translate(63.000000, 127.000000)">
                <path d="M258.641444,1.86566667 L12.1161111,1.86566667 L12.1161111,13.51 C12.1161111,31.5233333 19.1498889,48.4215556 31.2016667,60.6877778 L12.1161111,60.6877778 L12.1161111,72.3321111 C12.1161111,90.3454444 19.1498889,107.243667 31.2016667,119.488444 L12.1161111,119.488444 L12.1161111,131.132778 C12.1161111,149.146111 19.1498889,166.065778 31.2016667,178.332 L12.1161111,178.332 L12.1161111,189.954889 C12.1161111,226.067333 39.758,255.467667 73.7474444,255.467667 L130.918333,255.467667 L169.711333,189.869111 C191.530717,216.578177 224.132007,232.155398 258.62,232.350556 C322.245612,232.279625 373.803352,180.712291 373.862444,117.086667 C373.779747,53.4861516 322.24196,1.94836457 258.641444,1.86566667 L258.641444,1.86566667 Z" id="Shape" fill="#000000"></path>
                <path d="M172.499111,205.587889 C168.045978,205.587889 164.436,209.197867 164.436,213.651 C164.436,218.104133 168.045978,221.714111 172.499111,221.714111 C176.952244,221.714111 180.562222,218.104133 180.562222,213.651 C180.562222,209.197867 176.952244,205.587889 172.499111,205.587889 L172.499111,205.587889 Z M172.499111,219.977111 C170.146854,220.101506 167.919139,218.913075 166.712464,216.890076 C165.505789,214.867078 165.518606,212.342218 166.745756,210.331574 C167.972907,208.32093 170.212571,207.155176 172.563444,207.303444 C175.919728,207.515124 178.528444,210.307725 178.511373,213.670634 C178.494303,217.033542 175.85737,219.799515 172.499111,219.977111 L172.499111,219.977111 Z" id="Shape" fill="#000000"></path>
                <path d="M175.801556,211.763889 C175.801556,210.259772 174.582228,209.040444 173.078111,209.040444 L169.196667,209.040444 L169.196667,218.261556 L170.912222,218.261556 L170.912222,214.487333 L172.177444,214.487333 L173.893,218.261556 L175.801556,218.261556 L173.978778,214.358667 C175.079177,213.973111 175.81206,212.929831 175.801556,211.763889 L175.801556,211.763889 Z M173.078111,212.771778 L170.912222,212.771778 L170.912222,210.777444 L173.078111,210.777444 C173.635667,210.777444 174.086,211.206333 174.086,211.763889 C174.086,212.321444 173.657111,212.771778 173.078111,212.771778 Z" id="Shape" fill="#000000"></path>
                <path d="M258.684333,5.72566667 L15.8903333,5.72566667 L15.8903333,13.3813333 C15.8903333,34.6971111 26.1407778,53.5253333 41.5807778,64.5906667 L15.8903333,64.5906667 L15.8903333,72.2677778 C15.8903333,93.5835556 26.1407778,112.390333 41.5807778,123.477111 L15.8903333,123.477111 L15.8903333,131.132778 C15.8903333,152.491444 26.1407778,171.298222 41.5807778,182.320667 L15.8903333,182.320667 L15.8903333,190.019222 C15.8903333,223.987222 41.7952222,251.629111 73.6402222,251.629111 L128.580889,251.629111 L169.132333,183.092667 C190.08309,211.584025 223.319261,228.432917 258.684333,228.490556 C320.178127,228.41963 370.00769,178.580473 370.066778,117.086667 C370.007651,55.5998206 320.17119,5.77295403 258.684333,5.72566667 L258.684333,5.72566667 Z" id="Shape" fill="#FFFFFF"></path>
                <path d="M258.684333,13.3813333 L25.7976667,13.3813333 C25.7976667,43.1891111 48.2285556,67.3141111 75.849,67.3141111 L163.578222,67.3141111 C164.950667,67.3141111 166.065778,68.4292222 166.065778,69.8016667 C166.054006,71.1671237 164.94373,72.2678285 163.578222,72.2677778 L25.7976667,72.2677778 C25.7976667,102.032667 48.2285556,126.200556 75.849,126.200556 L128.752444,126.200556 C130.11444,126.200556 131.218556,127.304671 131.218556,128.666667 C131.218556,130.028662 130.11444,131.132778 128.752444,131.132778 L25.7976667,131.132778 C25.7976667,160.919111 48.2285556,185.044111 75.849,185.044111 L93.9266667,185.044111 C95.2991111,185.044111 96.4142222,186.180667 96.4142222,187.553111 C96.3910087,188.913713 95.2874189,190.007789 93.9266667,190.019222 L25.7976667,190.019222 C25.7976667,219.805556 48.2285556,243.930556 75.849,243.930556 L124.227667,243.930556 L214.637444,91.096 C227.619149,69.1132507 254.818812,60.0634582 278.382941,69.8867846 C301.94707,79.710111 314.664432,105.400364 308.187521,130.094808 C301.710611,154.789252 278.02153,170.930747 252.669473,167.924234 C227.317416,164.917721 208.060768,143.68327 207.539333,118.158889 L173.314,176.016 C201.307746,216.587837 253.988025,231.855038 299.337853,212.538805 C344.687681,193.222571 370.179862,144.658718 360.32126,96.3624268 C350.462658,48.0661357 307.976561,13.378519 258.684333,13.3813333 L258.684333,13.3813333 Z" id="Shape" fill="#000000"></path>
                <ellipse id="Oval" fill="#F74902" cx="258.684333" cy="117.086667" rx="29.4432222" ry="29.4432222"></ellipse>
            </g>
        </g>
    </g>
</svg>

<svg width="512" height="512" viewBox="0 0 512 512" xmlns="http://www.w3.org/2000/svg"><title>philadelphia-flyers</title><g transform="translate(63 127)" fill="none" fill-rule="evenodd"><path d="M258.641 1.866H12.116V13.51c0 18.013 7.034 34.912 19.086 47.178H12.116v11.644c0 18.013 7.034 34.912 19.086 47.156H12.116v11.645c0 18.013 7.034 34.933 19.086 47.199H12.116v11.623c0 36.112 27.642 65.513 61.631 65.513h57.171l38.793-65.599a115.65 115.65 0 0 0 88.909 42.482c63.626-.071 115.183-51.639 115.242-115.264-.082-63.6-51.62-115.139-115.22-115.221z" fill="#000"/><path d="M172.5 205.588a8.063 8.063 0 1 0 0 16.126 8.063 8.063 0 0 0 0-16.126zm0 14.39a6.348 6.348 0 1 1-.671-12.678 6.348 6.348 0 0 1 .67 12.677z" fill="#000"/><path d="M175.802 211.764a2.723 2.723 0 0 0-2.724-2.724h-3.881v9.222h1.715v-3.775h1.265l1.716 3.775h1.909l-1.823-3.903a2.723 2.723 0 0 0 1.823-2.595zm-2.724 1.008h-2.166v-1.995h2.166a.989.989 0 0 1 1.008.987.993.993 0 0 1-1.008 1.008z" fill="#000"/><path d="M258.684 5.726H15.89v7.655c0 21.316 10.25 40.144 25.69 51.21H15.89v7.677c0 21.316 10.25 40.122 25.69 51.21H15.89v7.655c0 21.358 10.25 40.165 25.69 51.188H15.89v7.698c0 33.968 25.905 61.61 57.75 61.61h54.94l40.552-68.536a111.382 111.382 0 0 0 89.552 45.398c61.494-.071 111.324-49.91 111.383-111.404C370.007 55.6 320.17 5.773 258.684 5.726z" fill="#FFF"/><path d="M258.684 13.381H25.798c0 29.808 22.43 53.933 50.051 53.933h87.73a2.49 2.49 0 0 1 2.487 2.488 2.488 2.488 0 0 1-2.488 2.466H25.798c0 29.765 22.43 53.933 50.051 53.933h52.903a2.466 2.466 0 1 1 0 4.932H25.798c0 29.786 22.43 53.911 50.051 53.911h18.078c1.372 0 2.487 1.137 2.487 2.51a2.509 2.509 0 0 1-2.487 2.465h-68.13c0 29.787 22.432 53.912 50.052 53.912h48.379l90.41-152.835c12.981-21.983 40.18-31.033 63.745-21.21 23.564 9.824 36.281 35.514 29.805 60.209-6.477 24.694-30.166 40.836-55.519 37.83-25.352-3.007-44.608-24.242-45.13-49.766l-34.225 57.857c27.994 40.572 80.674 55.839 126.024 36.523 45.35-19.316 70.842-67.88 60.983-116.177-9.858-48.296-52.344-82.983-101.637-82.98z" fill="#000"/><ellipse fill="#F74902" cx="258.684" cy="117.087" rx="29.443" ry="29.443"/></g></svg>
